_inc/systems/logos/pico-8.svg

<?xml version="1.0" encoding="utf-8"?>
<svg viewBox="0 0 264 44" xmlns="http://www.w3.org/2000/svg">
  <path d="M 17.572 8.763 L 26.836 8.763 L 26.836 17.824 L 17.572 17.824 Z M 0.002 44.003 L 17.446 44.003 L 17.518 26.358 L 44 26.368 L 43.896 0.031 L 9.102 0.033 L -0.02 9.124 Z" style="fill: rgb(255, 255, 255);"/>
  <path d="M 52.963 0.044 L 87.874 0.044 L 87.874 8.607 L 79.262 8.607 L 79.262 35.178 L 87.849 35.178 L 87.849 43.961 L 52.956 43.961 L 52.956 35.334 L 61.835 35.334 L 61.821 8.351 L 52.863 8.365 Z" style="fill: rgb(255, 255, 255);"/>
  <path d="M 96.833 9.401 L 106.235 0.003 L 131.921 0.003 L 131.921 8.706 L 114.502 8.706 L 114.502 35.273 L 131.737 35.273 L 131.737 43.949 L 97.023 43.949 Z" style="fill: rgb(255, 255, 255);"/>
  <path d="M 158.568 8.77 L 167.337 8.77 L 167.337 35.075 L 158.568 35.075 Z M 140.872 43.827 L 175.425 43.827 L 184.747 34.522 L 184.747 0.033 L 150.238 0.033 L 141.004 9.249 Z" style="fill: rgb(255, 255, 255);"/>
  <path d="M 193.787 17.498 L 211.308 17.498 L 211.308 26.295 L 193.787 26.295 L 193.787 17.498 Z" style="fill: rgb(255, 255, 255);"/>
  <path d="M 237.723 8.809 L 255.594 8.809 L 255.594 17.635 L 237.723 17.635 Z M 237.754 26.321 L 255.624 26.321 L 255.624 35.147 L 237.754 35.147 Z M 263.98 43.88 L 263.98 0.003 L 228.996 0.003 L 228.996 9.429 L 220.297 18.11 L 220.297 43.947 Z" style="fill: rgb(255, 255, 255);"/>
</svg>

<svg xmlns="http://www.w3.org/2000/svg" viewBox="0 0 264 44"><path d="M17.57 8.76h9.27v9.06h-9.27ZM0 44h17.45l.07-17.64H44L43.9.04H9.1l-9.12 9.1ZM52.96.04h34.91v8.57h-8.6v26.57h8.58v8.78h-34.9v-8.63h8.88V8.35l-8.97.02ZM96.83 9.4l9.4-9.4h25.7v8.7H114.5v26.57h17.24v8.68H97.02Zm61.74-.63h8.77v26.3h-8.77Zm-17.7 35.06h34.56l9.32-9.3V.02h-34.51L141 9.25Zm52.92-26.33h17.52v8.8h-17.52zm43.93-8.7h17.87v8.84h-17.87Zm.03 17.52h17.87v8.83h-17.87Zm26.23 17.56V0H229v9.43l-8.7 8.68v25.84Z" style="fill:#fff"/></svg>
